Numix-GalliumOS/32/status/pamac-wait.svg

<svg xmlns="http://www.w3.org/2000/svg" viewBox="0 0 32 32">
 <path d="m 10 5 -5 6 10 0 0 -6 -5 0 z m 7 0 0 6 10 0 -5 -6 -5 0 z m -12 8 0 14 14 0 0 -5 0 -1 0 -2 3 0 2 0 3 0 0 -6 -22 0 z" style="fill:#c28e5c"/>
 <path d="m 21 21 l 0 9 l 3 0 l 0 -9 l -3 0 z m 5 0 l 0 9 l 3 0 l 0 -9 l -3 0 z" style="fill:#888;opacity:1;fill-opacity:1;stroke:none;fill-rule:nonzero"/>
</svg>

<?xml version="1.0" encoding="UTF-8" standalone="no"?>
<svg
   xmlns:dc="http://purl.org/dc/elements/1.1/"
   xmlns:cc="http://creativecommons.org/ns#"
   xmlns:rdf="http://www.w3.org/1999/02/22-rdf-syntax-ns#"
   xmlns:svg="http://www.w3.org/2000/svg"
   xmlns="http://www.w3.org/2000/svg"
   xmlns:sodipodi="http://sodipodi.sourceforge.net/DTD/sodipodi-0.dtd"
   xmlns:inkscape="http://www.inkscape.org/namespaces/inkscape"
   width="32"
   height="32"
   viewBox="0 0 32 32"
   id="svg2"
   version="1.1"
   inkscape:version="0.91 r"
   sodipodi:docname="pamac-pause.svg">
  <metadata
     id="metadata10">
    <rdf:RDF>
      <cc:Work
         rdf:about="">
        <dc:format>image/svg+xml</dc:format>
        <dc:type
           rdf:resource="http://purl.org/dc/dcmitype/StillImage" />
        <dc:title></dc:title>
      </cc:Work>
    </rdf:RDF>
  </metadata>
  <defs
     id="defs8" />
  <sodipodi:namedview
     pagecolor="#ffffff"
     bordercolor="#666666"
     borderopacity="1"
     objecttolerance="10"
     gridtolerance="10"
     guidetolerance="10"
     inkscape:pageopacity="0"
     inkscape:pageshadow="2"
     inkscape:window-width="1366"
     inkscape:window-height="747"
     id="namedview6"
     showgrid="true"
     inkscape:zoom="11.313709"
     inkscape:cx="13.88905"
     inkscape:cy="7.616882"
     inkscape:window-x="0"
     inkscape:window-y="21"
     inkscape:window-maximized="1"
     inkscape:current-layer="svg2">
    <inkscape:grid
       type="xygrid"
       id="grid4138" />
  </sodipodi:namedview>
  <path
     style="fill:#c28e5c"
     d="m 10,5 -5,6 10,0 0,-6 -5,0 z m 7,0 0,6 10,0 -5,-6 -5,0 z m -12,8 0,14 14,0 0,-5 0,-1 0,-2 3,0 2,0 3,0 0,-6 -22,0 z"
     id="path4-8"
     inkscape:connector-curvature="0" />
  <path
     style="opacity:1;fill:#888888;fill-opacity:1;fill-rule:nonzero;stroke:none;stroke-width:6;stroke-linecap:butt;stroke-linejoin:round;stroke-miterlimit:4;stroke-dasharray:none;stroke-dashoffset:0;stroke-opacity:1"
     d="M 21 21 L 21 30 L 24 30 L 24 21 L 21 21 z M 26 21 L 26 30 L 29 30 L 29 21 L 26 21 z "
     id="rect4150" />
  <g
     id="g4167-9"
     style="stroke:#000000;stroke-width:6;stroke-linejoin:miter;stroke-miterlimit:4;stroke-dasharray:none;stroke-opacity:1"
     transform="translate(-63.5,-6.5)" />
</svg>
